X:0077
T:Roast Beef.
M:6/8
L:1/8
Q:3/8=90
I: :: ::
% D E ^F G ^G A B ^c d e ^f g
Z:Jack Campin * www.campin.me.uk * 2009
K:D
A|d>ed c>de  |fed  e2
d|d>ed c>dc  |BE^G A2:|
A|BGB  d2c/B/|A>FD B3 |
  e>fg c>BA  |d3   A2
F|G>AB A>dc  |d3   d2:|
<end>
<start>
